static/img/menus/ico-air-column-set.svg

<svg width="18" height="16" viewBox="0 0 18 16" fill="none" xmlns="http://www.w3.org/2000/svg">
<path fill-rule="evenodd" clip-rule="evenodd" d="M3.79404 5.4413H2.03579C1.38842 5.4413 0.863632 4.92959 0.863632 4.29836V2.58395C0.863632 1.95272 1.38842 1.44101 2.03579 1.44101H3.79404C4.4414 1.44101 4.9662 1.95272 4.9662 2.58395V4.29836C4.9662 4.92959 4.4414 5.4413 3.79404 5.4413ZM3.95944 3.0108C4.03937 2.92173 4.03011 2.78635 3.93876 2.70841C3.84741 2.63047 3.70856 2.6395 3.62863 2.72857L2.78764 3.66575C2.76182 3.69452 2.71735 3.69837 2.68674 3.67449L2.17309 3.27381C2.0783 3.19988 1.94 3.21487 1.86417 3.30728C1.78835 3.3997 1.80371 3.53456 1.8985 3.6085L2.41215 4.00917C2.62644 4.17633 2.93772 4.14936 3.11843 3.94798L3.95944 3.0108Z" fill="black"/>
<path fill-rule="evenodd" clip-rule="evenodd" d="M3.79404 15.042H2.03579C1.38842 15.042 0.863632 14.5303 0.863632 13.899V12.1847C0.863632 11.5534 1.38842 11.0417 2.03579 11.0417H3.79404C4.4414 11.0417 4.9662 11.5534 4.9662 12.1847V13.899C4.9662 14.5303 4.4414 15.042 3.79404 15.042ZM3.95944 12.6115C4.03937 12.5224 4.03011 12.387 3.93876 12.3091C3.84741 12.2311 3.70856 12.2402 3.62863 12.3292L2.78764 13.2664C2.76182 13.2952 2.71735 13.2991 2.68674 13.2751L2.17309 12.8745C2.0783 12.8005 1.94 12.8156 1.86417 12.908C1.78835 13.0004 1.80371 13.1353 1.8985 13.2092L2.41215 13.6099C2.62644 13.777 2.93772 13.75 3.11843 13.5487L3.95944 12.6115Z" fill="black"/>
<path d="M4.14568 7.24142C4.14568 7.13097 4.05384 7.04141 3.94056 7.04141H1.88927C1.77599 7.04141 1.68415 7.13097 1.68415 7.24142V9.24157C1.68415 9.35202 1.77599 9.44158 1.88927 9.44158H3.94056C4.05384 9.44158 4.14568 9.35202 4.14568 9.24157V7.24142ZM4.9662 9.24157C4.9662 9.79387 4.507 10.2416 3.94056 10.2416H1.88927C1.32283 10.2416 0.863632 9.79387 0.863632 9.24157V7.24142C0.863632 6.68911 1.32283 6.24135 1.88927 6.24135H3.94056C4.507 6.24135 4.9662 6.68911 4.9662 7.24142V9.24157Z" fill="black"/>
<path d="M12.7611 3.04112C12.9876 3.04112 13.1713 3.22022 13.1713 3.44115C13.1713 3.66208 12.9876 3.84118 12.7611 3.84118H7.01748C6.7909 3.84118 6.60722 3.66208 6.60722 3.44115C6.60722 3.22022 6.7909 3.04112 7.01748 3.04112H12.7611Z" fill="black"/>
<path d="M16.4534 7.84146C16.68 7.84146 16.8636 8.02056 16.8636 8.24149C16.8636 8.46242 16.68 8.64152 16.4534 8.64152H7.01748C6.7909 8.64152 6.60722 8.46242 6.60722 8.24149C6.60722 8.02056 6.7909 7.84146 7.01748 7.84146H16.4534Z" fill="black"/>
<path d="M14.4021 12.6418C14.6287 12.6418 14.8124 12.8209 14.8124 13.0418C14.8124 13.2628 14.6287 13.4419 14.4021 13.4419H7.01748C6.7909 13.4419 6.60722 13.2628 6.60722 13.0418C6.60722 12.8209 6.7909 12.6418 7.01748 12.6418H14.4021Z" fill="black"/>
</svg>

<svg xmlns="http://www.w3.org/2000/svg" width="18" height="16" fill="none" viewBox="0 0 18 16"><path fill="#000" fill-rule="evenodd" d="M3.794 5.441H2.036c-.648 0-1.172-.511-1.172-1.143V2.584c0-.631.524-1.143 1.172-1.143h1.758c.647 0 1.172.512 1.172 1.143v1.714c0 .632-.525 1.143-1.172 1.143m.165-2.43a.21.21 0 0 0-.02-.303.224.224 0 0 0-.31.02l-.841.938a.075.075 0 0 1-.101.008l-.514-.4a.224.224 0 0 0-.309.033.21.21 0 0 0 .034.301l.514.401c.214.167.526.14.706-.061zM3.794 15.042H2.036c-.648 0-1.172-.512-1.172-1.143v-1.714c0-.632.524-1.143 1.172-1.143h1.758c.647 0 1.172.511 1.172 1.143v1.714c0 .631-.525 1.143-1.172 1.143m.165-2.43a.21.21 0 0 0-.02-.303.224.224 0 0 0-.31.02l-.841.937a.074.074 0 0 1-.101.01l-.514-.402a.224.224 0 0 0-.309.034.21.21 0 0 0 .034.301l.514.4c.214.168.526.141.706-.06z" clip-rule="evenodd"/><path fill="#000" d="M4.146 7.241c0-.11-.092-.2-.205-.2H1.889a.203.203 0 0 0-.205.2v2c0 .111.092.2.205.2h2.052c.113 0 .205-.089.205-.2zm.82 2c0 .553-.459 1-1.025 1H1.889a1.013 1.013 0 0 1-1.025-1v-2c0-.552.459-1 1.025-1h2.052c.566 0 1.025.448 1.025 1zM12.761 3.041c.227 0 .41.18.41.4s-.183.4-.41.4H7.017a.405.405 0 0 1-.41-.4c0-.22.184-.4.41-.4zM16.453 7.841c.227 0 .41.18.41.4s-.183.4-.41.4H7.017a.405.405 0 0 1-.41-.4c0-.22.184-.4.41-.4zM14.402 12.642c.227 0 .41.179.41.4 0 .22-.183.4-.41.4H7.017a.405.405 0 0 1-.41-.4c0-.221.184-.4.41-.4z"/></svg>
